svg/free/mug.svg

<svg version="1.1" xmlns="http://www.w3.org/2000/svg" width="24" height="24" viewBox="0 0 24 24">
<title>mug</title>
<path d="M19.5 8.438h-4.5v7.5h4.5c0.518-0.001 0.937-0.42 0.938-0.937v-5.625c-0.001-0.518-0.42-0.937-0.937-0.938h-0zM18.938 14.438h-2.438v-4.5h2.438z"></path>
<path d="M20.464 5.625h-3.964v-2.625h-15v16.125c0.002 1.656 1.344 2.998 3 3h9c1.656-0.002 2.998-1.344 3-3v-0.375h3.964c1.538-0.002 2.784-1.248 2.786-2.785v-7.554c-0.002-1.538-1.248-2.784-2.785-2.786h-0zM21.75 15.964c-0.001 0.71-0.576 1.285-1.285 1.286h-5.465v1.875c-0.001 0.828-0.672 1.499-1.5 1.5h-9c-0.828-0.001-1.499-0.672-1.5-1.5v-14.625h12v2.625h5.464c0.71 0.001 1.285 0.576 1.286 1.286v0z"></path>
</svg>

<svg xmlns="http://www.w3.org/2000/svg" width="24" height="24" viewBox="0 0 24 24"><path d="M19.5 8.438H15v7.5h4.5a.94.94 0 00.938-.937V9.376a.94.94 0 00-.937-.938zm-.562 6H16.5v-4.5h2.438z"/><path d="M20.464 5.625H16.5V3h-15v16.125a3.004 3.004 0 003 3h9a3.004 3.004 0 003-3v-.375h3.964a2.79 2.79 0 002.786-2.785V8.411a2.79 2.79 0 00-2.785-2.786zm1.286 10.339a1.287 1.287 0 01-1.285 1.286H15v1.875a1.502 1.502 0 01-1.5 1.5h-9a1.502 1.502 0 01-1.5-1.5V4.5h12v2.625h5.464c.71.001 1.285.576 1.286 1.286z"/></svg>
